X:214
T:The Grandchildren's Waltz
R:waltz
C:Bruce Osborne - Aug. 2002
Z:abc by bosborne@kos.net
M:3/4
L:1/8
K:Dmaj
DE|F3 B AG|F2 A2 DE|F3 E FB|A4 EF|1 G3 F GA|\
cB ce EF|GF GA cB|A4:|2G3 F GA|cB ce EF|\
GE CE A,C|D4|:A,C|D3 A, CE|\
D3 D FB|A3 F BF|A3 B cd|c3 d cB|1 E3 F GA|\
cd cB AG|F4:|2E3 F GA|cd cA EC|\
D4||
